assets/img/4-features/clouds.svg

<svg width="1291" height="633" fill="none" xmlns="http://www.w3.org/2000/svg"><g filter="url(#filter0_d)"><path d="M1148.37 121.611c-10.14 0-18.37 8.407-18.37 18.778h36.75c0-10.371-8.23-18.778-18.38-18.778z" fill="#EEF3FF"/></g><g filter="url(#filter1_d)"><path d="M1220.42 138c-14.12 0-25.58 11.641-25.58 26H1246c0-14.359-11.45-26-25.58-26z" fill="#E1EAFF"/></g><g filter="url(#filter2_d)"><path d="M1181.88 118c-21.49 0-38.91 17.461-38.91 39h77.81c0-21.539-17.42-39-38.9-39z" fill="#D5E0FB"/></g><g filter="url(#filter3_d)"><path d="M1230.5 102c-8.56 0-15.5 7.163-15.5 16h31c0-8.837-6.94-16-15.5-16z" fill="#ECF1FC"/></g><g filter="url(#filter4_d)"><path d="M99.373 533C89.226 533 81 541.407 81 551.778h36.745c0-10.371-8.225-18.778-18.372-18.778z" fill="#EEF3FF"/></g><g filter="url(#filter5_d)"><path d="M114.5 542C92.132 542 74 560.356 74 583h81c0-22.644-18.132-41-40.5-41z" fill="#E1EAFF"/></g><g filter="url(#filter6_d)"><path d="M67 549c-12.15 0-22 9.85-22 22h44c0-12.15-9.85-22-22-22z" fill="#D5E0FB"/></g><g filter="url(#filter7_d)"><path d="M187.913 40c-5.811 0-10.522 4.876-10.522 10.891h21.045c0-6.015-4.711-10.891-10.523-10.891z" fill="#EEF3FF"/></g><g filter="url(#filter8_d)"><path d="M167.195 42.22C154.385 42.22 144 52.867 144 66h46.391c0-13.133-10.385-23.78-23.196-23.78z" fill="#E1EAFF"/></g><g filter="url(#filter9_d)"><path d="M143.5 555c-8.56 0-15.5 7.163-15.5 16h31c0-8.837-6.94-16-15.5-16z" fill="#ECF1FC"/></g><defs><filter id="filter0_d" x="1085" y="81.611" width="126.745" height="108.778" filterUnits="userSpaceOnUse" color-interpolation-filters="sRGB"><feFlood flood-opacity="0" result="BackgroundImageFix"/><feColorMatrix in="SourceAlpha" values="0 0 0 0 0 0 0 0 0 0 0 0 0 0 0 0 0 0 127 0"/><feOffset dy="5"/><feGaussianBlur stdDeviation="22.5"/><feColorMatrix values="0 0 0 0 0.593724 0 0 0 0 0.684469 0 0 0 0 0.888646 0 0 0 0.1 0"/><feBlend in2="BackgroundImageFix" result="effect1_dropShadow"/><feBlend in="SourceGraphic" in2="effect1_dropShadow" result="shape"/></filter><filter id="filter1_d" x="1149.84" y="98" width="141.155" height="116" filterUnits="userSpaceOnUse" color-interpolation-filters="sRGB"><feFlood flood-opacity="0" result="BackgroundImageFix"/><feColorMatrix in="SourceAlpha" values="0 0 0 0 0 0 0 0 0 0 0 0 0 0 0 0 0 0 127 0"/><feOffset dy="5"/><feGaussianBlur stdDeviation="22.5"/><feColorMatrix values="0 0 0 0 0.593724 0 0 0 0 0.684469 0 0 0 0 0.888646 0 0 0 0.1 0"/><feBlend in2="BackgroundImageFix" result="effect1_dropShadow"/><feBlend in="SourceGraphic" in2="effect1_dropShadow" result="shape"/></filter><filter id="filter2_d" x="1097.97" y="78" width="167.814" height="129" filterUnits="userSpaceOnUse" color-interpolation-filters="sRGB"><feFlood flood-opacity="0" result="BackgroundImageFix"/><feColorMatrix in="SourceAlpha" values="0 0 0 0 0 0 0 0 0 0 0 0 0 0 0 0 0 0 127 0"/><feOffset dy="5"/><feGaussianBlur stdDeviation="22.5"/><feColorMatrix values="0 0 0 0 0.593724 0 0 0 0 0.684469 0 0 0 0 0.888646 0 0 0 0.1 0"/><feBlend in2="BackgroundImageFix" result="effect1_dropShadow"/><feBlend in="SourceGraphic" in2="effect1_dropShadow" result="shape"/></filter><filter id="filter3_d" x="1170" y="62" width="121" height="106" filterUnits="userSpaceOnUse" color-interpolation-filters="sRGB"><feFlood flood-opacity="0" result="BackgroundImageFix"/><feColorMatrix in="SourceAlpha" values="0 0 0 0 0 0 0 0 0 0 0 0 0 0 0 0 0 0 127 0"/><feOffset dy="5"/><feGaussianBlur stdDeviation="22.5"/><feColorMatrix values="0 0 0 0 0.593724 0 0 0 0 0.684469 0 0 0 0 0.888646 0 0 0 0.1 0"/><feBlend in2="BackgroundImageFix" result="effect1_dropShadow"/><feBlend in="SourceGraphic" in2="effect1_dropShadow" result="shape"/></filter><filter id="filter4_d" x="36" y="493" width="126.745" height="108.778" filterUnits="userSpaceOnUse" color-interpolation-filters="sRGB"><feFlood flood-opacity="0" result="BackgroundImageFix"/><feColorMatrix in="SourceAlpha" values="0 0 0 0 0 0 0 0 0 0 0 0 0 0 0 0 0 0 127 0"/><feOffset dy="5"/><feGaussianBlur stdDeviation="22.5"/><feColorMatrix values="0 0 0 0 0.593724 0 0 0 0 0.684469 0 0 0 0 0.888646 0 0 0 0.1 0"/><feBlend in2="BackgroundImageFix" result="effect1_dropShadow"/><feBlend in="SourceGraphic" in2="effect1_dropShadow" result="shape"/></filter><filter id="filter5_d" x="29" y="502" width="171" height="131" filterUnits="userSpaceOnUse" color-interpolation-filters="sRGB"><feFlood flood-opacity="0" result="BackgroundImageFix"/><feColorMatrix in="SourceAlpha" values="0 0 0 0 0 0 0 0 0 0 0 0 0 0 0 0 0 0 127 0"/><feOffset dy="5"/><feGaussianBlur stdDeviation="22.5"/><feColorMatrix values="0 0 0 0 0.593724 0 0 0 0 0.684469 0 0 0 0 0.888646 0 0 0 0.1 0"/><feBlend in2="BackgroundImageFix" result="effect1_dropShadow"/><feBlend in="SourceGraphic" in2="effect1_dropShadow" result="shape"/></filter><filter id="filter6_d" x="0" y="509" width="134" height="112" filterUnits="userSpaceOnUse" color-interpolation-filters="sRGB"><feFlood flood-opacity="0" result="BackgroundImageFix"/><feColorMatrix in="SourceAlpha" values="0 0 0 0 0 0 0 0 0 0 0 0 0 0 0 0 0 0 127 0"/><feOffset dy="5"/><feGaussianBlur stdDeviation="22.5"/><feColorMatrix values="0 0 0 0 0.593724 0 0 0 0 0.684469 0 0 0 0 0.888646 0 0 0 0.1 0"/><feBlend in2="BackgroundImageFix" result="effect1_dropShadow"/><feBlend in="SourceGraphic" in2="effect1_dropShadow" result="shape"/></filter><filter id="filter7_d" x="132.391" y="0" width="111.045" height="100.891" filterUnits="userSpaceOnUse" color-interpolation-filters="sRGB"><feFlood flood-opacity="0" result="BackgroundImageFix"/><feColorMatrix in="SourceAlpha" values="0 0 0 0 0 0 0 0 0 0 0 0 0 0 0 0 0 0 127 0"/><feOffset dy="5"/><feGaussianBlur stdDeviation="22.5"/><feColorMatrix values="0 0 0 0 0.593724 0 0 0 0 0.684469 0 0 0 0 0.888646 0 0 0 0.1 0"/><feBlend in2="BackgroundImageFix" result="effect1_dropShadow"/><feBlend in="SourceGraphic" in2="effect1_dropShadow" result="shape"/></filter><filter id="filter8_d" x="99" y="2.22" width="136.391" height="113.78" filterUnits="userSpaceOnUse" color-interpolation-filters="sRGB"><feFlood flood-opacity="0" result="BackgroundImageFix"/><feColorMatrix in="SourceAlpha" values="0 0 0 0 0 0 0 0 0 0 0 0 0 0 0 0 0 0 127 0"/><feOffset dy="5"/><feGaussianBlur stdDeviation="22.5"/><feColorMatrix values="0 0 0 0 0.593724 0 0 0 0 0.684469 0 0 0 0 0.888646 0 0 0 0.1 0"/><feBlend in2="BackgroundImageFix" result="effect1_dropShadow"/><feBlend in="SourceGraphic" in2="effect1_dropShadow" result="shape"/></filter><filter id="filter9_d" x="83" y="515" width="121" height="106" filterUnits="userSpaceOnUse" color-interpolation-filters="sRGB"><feFlood flood-opacity="0" result="BackgroundImageFix"/><feColorMatrix in="SourceAlpha" values="0 0 0 0 0 0 0 0 0 0 0 0 0 0 0 0 0 0 127 0"/><feOffset dy="5"/><feGaussianBlur stdDeviation="22.5"/><feColorMatrix values="0 0 0 0 0.593724 0 0 0 0 0.684469 0 0 0 0 0.888646 0 0 0 0.1 0"/><feBlend in2="BackgroundImageFix" result="effect1_dropShadow"/><feBlend in="SourceGraphic" in2="effect1_dropShadow" result="shape"/></filter></defs></svg>

<svg width="1291" height="633" viewBox="0 0 1291 633" fill="none" xmlns="http://www.w3.org/2000/svg">
<g filter="url(#filter0_d)">
<path d="M1148.37 121.611C1138.23 121.611 1130 130.018 1130 140.389H1166.75C1166.75 130.018 1158.52 121.611 1148.37 121.611Z" fill="#EEF3FF"/>
</g>
<g filter="url(#filter1_d)">
<path d="M1220.42 138C1206.3 138 1194.84 149.641 1194.84 164H1246C1246 149.641 1234.55 138 1220.42 138Z" fill="#E1EAFF"/>
</g>
<g filter="url(#filter2_d)">
<path d="M1181.88 118C1160.39 118 1142.97 135.461 1142.97 157H1220.78C1220.78 135.461 1203.36 118 1181.88 118Z" fill="#D5E0FB"/>
</g>
<g filter="url(#filter3_d)">
<path d="M1230.5 102C1221.94 102 1215 109.163 1215 118H1246C1246 109.163 1239.06 102 1230.5 102Z" fill="#ECF1FC"/>
</g>
<g filter="url(#filter4_d)">
<path d="M99.3727 533C89.2257 533 81 541.407 81 551.778H117.745C117.745 541.407 109.52 533 99.3727 533Z" fill="#EEF3FF"/>
</g>
<g filter="url(#filter5_d)">
<path d="M114.5 542C92.1325 542 74 560.356 74 583H155C155 560.356 136.868 542 114.5 542Z" fill="#E1EAFF"/>
</g>
<g filter="url(#filter6_d)">
<path d="M67 549C54.8497 549 45 558.85 45 571H89C89 558.85 79.1503 549 67 549Z" fill="#D5E0FB"/>
</g>
<g filter="url(#filter7_d)">
<path d="M187.913 40C182.102 40 177.391 44.8761 177.391 50.8911H198.436C198.436 44.8761 193.725 40 187.913 40Z" fill="#EEF3FF"/>
</g>
<g filter="url(#filter8_d)">
<path d="M167.195 42.22C154.385 42.22 144 52.8666 144 66H190.391C190.391 52.8666 180.006 42.22 167.195 42.22Z" fill="#E1EAFF"/>
</g>
<g filter="url(#filter9_d)">
<path d="M143.5 555C134.94 555 128 562.163 128 571H159C159 562.163 152.06 555 143.5 555Z" fill="#ECF1FC"/>
</g>
<defs>
<filter id="filter0_d" x="1085" y="81.6111" width="126.745" height="108.778" filterUnits="userSpaceOnUse" color-interpolation-filters="sRGB">
<feFlood flood-opacity="0" result="BackgroundImageFix"/>
<feColorMatrix in="SourceAlpha" type="matrix" values="0 0 0 0 0 0 0 0 0 0 0 0 0 0 0 0 0 0 127 0"/>
<feOffset dy="5"/>
<feGaussianBlur stdDeviation="22.5"/>
<feColorMatrix type="matrix" values="0 0 0 0 0.593724 0 0 0 0 0.684469 0 0 0 0 0.888646 0 0 0 0.1 0"/>
<feBlend mode="normal" in2="BackgroundImageFix" result="effect1_dropShadow"/>
<feBlend mode="normal" in="SourceGraphic" in2="effect1_dropShadow" result="shape"/>
</filter>
<filter id="filter1_d" x="1149.84" y="98" width="141.155" height="116" filterUnits="userSpaceOnUse" color-interpolation-filters="sRGB">
<feFlood flood-opacity="0" result="BackgroundImageFix"/>
<feColorMatrix in="SourceAlpha" type="matrix" values="0 0 0 0 0 0 0 0 0 0 0 0 0 0 0 0 0 0 127 0"/>
<feOffset dy="5"/>
<feGaussianBlur stdDeviation="22.5"/>
<feColorMatrix type="matrix" values="0 0 0 0 0.593724 0 0 0 0 0.684469 0 0 0 0 0.888646 0 0 0 0.1 0"/>
<feBlend mode="normal" in2="BackgroundImageFix" result="effect1_dropShadow"/>
<feBlend mode="normal" in="SourceGraphic" in2="effect1_dropShadow" result="shape"/>
</filter>
<filter id="filter2_d" x="1097.97" y="78" width="167.814" height="129" filterUnits="userSpaceOnUse" color-interpolation-filters="sRGB">
<feFlood flood-opacity="0" result="BackgroundImageFix"/>
<feColorMatrix in="SourceAlpha" type="matrix" values="0 0 0 0 0 0 0 0 0 0 0 0 0 0 0 0 0 0 127 0"/>
<feOffset dy="5"/>
<feGaussianBlur stdDeviation="22.5"/>
<feColorMatrix type="matrix" values="0 0 0 0 0.593724 0 0 0 0 0.684469 0 0 0 0 0.888646 0 0 0 0.1 0"/>
<feBlend mode="normal" in2="BackgroundImageFix" result="effect1_dropShadow"/>
<feBlend mode="normal" in="SourceGraphic" in2="effect1_dropShadow" result="shape"/>
</filter>
<filter id="filter3_d" x="1170" y="62" width="121" height="106" filterUnits="userSpaceOnUse" color-interpolation-filters="sRGB">
<feFlood flood-opacity="0" result="BackgroundImageFix"/>
<feColorMatrix in="SourceAlpha" type="matrix" values="0 0 0 0 0 0 0 0 0 0 0 0 0 0 0 0 0 0 127 0"/>
<feOffset dy="5"/>
<feGaussianBlur stdDeviation="22.5"/>
<feColorMatrix type="matrix" values="0 0 0 0 0.593724 0 0 0 0 0.684469 0 0 0 0 0.888646 0 0 0 0.1 0"/>
<feBlend mode="normal" in2="BackgroundImageFix" result="effect1_dropShadow"/>
<feBlend mode="normal" in="SourceGraphic" in2="effect1_dropShadow" result="shape"/>
</filter>
<filter id="filter4_d" x="36" y="493" width="126.745" height="108.778" filterUnits="userSpaceOnUse" color-interpolation-filters="sRGB">
<feFlood flood-opacity="0" result="BackgroundImageFix"/>
<feColorMatrix in="SourceAlpha" type="matrix" values="0 0 0 0 0 0 0 0 0 0 0 0 0 0 0 0 0 0 127 0"/>
<feOffset dy="5"/>
<feGaussianBlur stdDeviation="22.5"/>
<feColorMatrix type="matrix" values="0 0 0 0 0.593724 0 0 0 0 0.684469 0 0 0 0 0.888646 0 0 0 0.1 0"/>
<feBlend mode="normal" in2="BackgroundImageFix" result="effect1_dropShadow"/>
<feBlend mode="normal" in="SourceGraphic" in2="effect1_dropShadow" result="shape"/>
</filter>
<filter id="filter5_d" x="29" y="502" width="171" height="131" filterUnits="userSpaceOnUse" color-interpolation-filters="sRGB">
<feFlood flood-opacity="0" result="BackgroundImageFix"/>
<feColorMatrix in="SourceAlpha" type="matrix" values="0 0 0 0 0 0 0 0 0 0 0 0 0 0 0 0 0 0 127 0"/>
<feOffset dy="5"/>
<feGaussianBlur stdDeviation="22.5"/>
<feColorMatrix type="matrix" values="0 0 0 0 0.593724 0 0 0 0 0.684469 0 0 0 0 0.888646 0 0 0 0.1 0"/>
<feBlend mode="normal" in2="BackgroundImageFix" result="effect1_dropShadow"/>
<feBlend mode="normal" in="SourceGraphic" in2="effect1_dropShadow" result="shape"/>
</filter>
<filter id="filter6_d" x="0" y="509" width="134" height="112" filterUnits="userSpaceOnUse" color-interpolation-filters="sRGB">
<feFlood flood-opacity="0" result="BackgroundImageFix"/>
<feColorMatrix in="SourceAlpha" type="matrix" values="0 0 0 0 0 0 0 0 0 0 0 0 0 0 0 0 0 0 127 0"/>
<feOffset dy="5"/>
<feGaussianBlur stdDeviation="22.5"/>
<feColorMatrix type="matrix" values="0 0 0 0 0.593724 0 0 0 0 0.684469 0 0 0 0 0.888646 0 0 0 0.1 0"/>
<feBlend mode="normal" in2="BackgroundImageFix" result="effect1_dropShadow"/>
<feBlend mode="normal" in="SourceGraphic" in2="effect1_dropShadow" result="shape"/>
</filter>
<filter id="filter7_d" x="132.391" y="0" width="111.045" height="100.891" filterUnits="userSpaceOnUse" color-interpolation-filters="sRGB">
<feFlood flood-opacity="0" result="BackgroundImageFix"/>
<feColorMatrix in="SourceAlpha" type="matrix" values="0 0 0 0 0 0 0 0 0 0 0 0 0 0 0 0 0 0 127 0"/>
<feOffset dy="5"/>
<feGaussianBlur stdDeviation="22.5"/>
<feColorMatrix type="matrix" values="0 0 0 0 0.593724 0 0 0 0 0.684469 0 0 0 0 0.888646 0 0 0 0.1 0"/>
<feBlend mode="normal" in2="BackgroundImageFix" result="effect1_dropShadow"/>
<feBlend mode="normal" in="SourceGraphic" in2="effect1_dropShadow" result="shape"/>
</filter>
<filter id="filter8_d" x="99" y="2.21997" width="136.391" height="113.78" filterUnits="userSpaceOnUse" color-interpolation-filters="sRGB">
<feFlood flood-opacity="0" result="BackgroundImageFix"/>
<feColorMatrix in="SourceAlpha" type="matrix" values="0 0 0 0 0 0 0 0 0 0 0 0 0 0 0 0 0 0 127 0"/>
<feOffset dy="5"/>
<feGaussianBlur stdDeviation="22.5"/>
<feColorMatrix type="matrix" values="0 0 0 0 0.593724 0 0 0 0 0.684469 0 0 0 0 0.888646 0 0 0 0.1 0"/>
<feBlend mode="normal" in2="BackgroundImageFix" result="effect1_dropShadow"/>
<feBlend mode="normal" in="SourceGraphic" in2="effect1_dropShadow" result="shape"/>
</filter>
<filter id="filter9_d" x="83" y="515" width="121" height="106" filterUnits="userSpaceOnUse" color-interpolation-filters="sRGB">
<feFlood flood-opacity="0" result="BackgroundImageFix"/>
<feColorMatrix in="SourceAlpha" type="matrix" values="0 0 0 0 0 0 0 0 0 0 0 0 0 0 0 0 0 0 127 0"/>
<feOffset dy="5"/>
<feGaussianBlur stdDeviation="22.5"/>
<feColorMatrix type="matrix" values="0 0 0 0 0.593724 0 0 0 0 0.684469 0 0 0 0 0.888646 0 0 0 0.1 0"/>
<feBlend mode="normal" in2="BackgroundImageFix" result="effect1_dropShadow"/>
<feBlend mode="normal" in="SourceGraphic" in2="effect1_dropShadow" result="shape"/>
</filter>
</defs>
</svg>
